!!!!SEGMENT: pl-kk--kk-i-382--083_anonim-offertorium-nro-24.krn
!!!id: 18xx:1585
!!!COM: Anonim
!!!OTL: Offertorium Nro 24
!!!PDT:
!!!SMS-siglum: PL-Kk
!!!SMS-shelfmark: Kk.I.382
!!!NIFC-rismID: 1001142295
!!!URL-scan: http://repozytorium.nifc.pl/skany/pl-kk-nut--i-382
!!!ONB-nifc: UWAGA: Offertoria od skanu 0041 (S/T1), 0113 (T2), 0185 (A/B1), 0262 (B2)
!!!ONB-nifc: UWAGA: obsada: S/T1, A/B1, T2, B2. Skany 0049-0050, 0195, 0122, 0271
!!!SMS-variant:
!!!SMS-altvar:
**kern	**text	**kern	**text	**kern	**text	**kern	**text
*part4	*part4	*part3	*part3	*part2	*part2	*part1	*part1
*staff4	*staff4	*staff3	*staff3	*staff2	*staff2	*staff1	*staff1
*I"Basso II	*	*I"Tenore II	*	*I"Alto vel Basso I	*	*I"Soprano vel Tenore I.	*
*I'B II	*	*I'T II	*	*I'A vel B I	*	*I'S vel T I	*
*clefF4	*	*clefC4	*	*clefC3	*	*clefC1	*
*k[f#]	*	*k[f#]	*	*k[f#]	*	*k[f#]	*
*M3/4	*	*M3/4	*	*M3/4	*	*M3/4	*
*all\right	*	*all\right	*	*all\right	*	*all\right	*
*2\right	*	*2\right	*	*2\right	*	*2\right	*
!LO:TX:a:t=Nro 24	!	!LO:TX:a:t=Nro 24	!	!LO:TX:a:t=Nro 24.	!	!LO:TX:a:t=Nro 24	!
4G\	Le-	4B\	Le-	4g\	Le-	4dd\	Le-
=1	=1	=1	=1	=1	=1	=1	=1
4C/	-ta-	4c\	-ta-	4g\	-ta-	4ee\	-ta-
4G\	-tus	8B\	-tus	8g\	-tus	8dd\	-tus
.	.	8r	.	8r	.	8r	.
!LO:TX:t=P:problem:mixed beam	!	!	!	!	!	!	!
(8GG/L	le-	4B\	le-	4g\	le-	(16dd\LL	le-
.	.	.	.	.	.	16gg\	.
8G\J)	.	.	.	.	.	16b\	.
.	.	.	.	.	.	16ee\JJ)	.
=2	=2	=2	=2	=2	=2	=2	=2
4C/	-ta-	8.B\	-ta-	4f#\	-ta-	8.dd\	-ta-
.	.	16A\	-tus	.	.	16cc\	-tus
4E\	-tus	4G/	sum	4g\	-tus	8b\	sum
.	.	.	.	.	.	8r	.
4r	.	4r	.	4r	.	4b\	in
=3	=3	=3	=3	=3	=3	=3	=3
!	!	!LO:N:vis=8.	!	!	!	!	!
8C/	in	8E/	in	8c\	in	8b\	his
8E/	his	8E/	his	8e\	his	8a\	que
8C/	que	8E/	que	8e\	que	(8cc\L	dic-
8C/	di-	8c\	dic-	8e\	dic-	8a\J)	.
!	!	!	!	!	!	!LO:LB:g=original	!
8D/	-cta	8B\	-ta	8d\	-ta	8g/	-ta
8D/	sunt	8A\	sunt	8c\	sunt	8f#/	sunt
!	!	!	!	!LO:LB:g=original	!	!	!
=4	=4	=4	=4	=4	=4	=4	=4
8GG/	mi-	8A/	mi-	8B/	mi-	8a\	mi-
8GG/	-hi	8G/	-hi	8B/	-hi	8g\	-hi
4r	.	4r	.	4r	.	4r	.
!	!	!LO:LB:g=original	!	!	!	!	!
4GG/	in	4B\	in	4r	.	4r	.
!LO:LB:g=original	!	!	!	!	!	!	!
=5	=5	=5	=5	=5	=5	=5	=5
2GG/	Do-	(4.B\	Do-	(8e\L	in	(8gg\L	in
.	.	.	.	8a\J)	.	8ff#\J)	.
.	.	.	.	(8g\L	Do-	(8ee\L	Do-
.	.	8A\)	.	8f#\J)	.	8dd\J)	.
4BB/	-mum	(8G/L	-mum	(8e\L	-mum	(8cc#X\L	-mum
.	.	8F#/J)	.	8d\J)	.	8b\J)	.
=6	=6	=6	=6	=6	=6	=6	=6
4r	.	2E/	do-	4c#X\	Do-	4b\	Do-
4r	.	.	.	4c#\	-mi-	4a\	-mi-
(4BB/	Do-	4F#/	-mum	4d\	-ni	4dd\	-ni
=7	=7	=7	=7	=7	=7	=7	=7
4E\)	.	4.G/	Do-	4e\	Do-	(4.dd\	Do-
4E\	-mi-	.	.	4e\	-mi-	.	.
.	.	8G/	-mi-	.	.	8ccn\)	.
4E\	-ni	4G/	-ni	4e\	-ni	8ee\	-mi-
.	.	.	.	.	.	8cc\	-ni
!	!	!	!	!	!	!LO:LB:g=original	!
=8	=8	=8	=8	=8	=8	=8	=8
8F#\	i-	8F#/	i-	8d\	i-	8b\	i-
8F#\	-bi-	8F#/	-bi-	8e\	-bi-	8a#X\	-bi-
4BB/	-mus	4F#/	-mus	4d\	-mus	4b\	-mus
4r	.	4r	.	4r	.	4r	.
=9	=9	=9	=9	=9	=9	=9	=9
8GG/	fi-	8B\	fi-	8g\	fi-	8dd\	fi-
8G\	-at	8B\	-at	8g\	-at	(16dd\LL	-at
.	.	.	.	.	.	32ee\L	.
.	.	.	.	.	.	32dd\JJJ)	.
!	!	!	!	!LO:LB:g=original	!	!	!
4G\	pax	(8A#X\L	pax	4g\	pax	8cc#X\	pax
.	.	8B\J)	.	.	.	(16dd\LL	in
.	.	.	.	.	.	32ee\L	.
.	.	.	.	.	.	32dd\JJJ)	.
8G\	in	8A#\	in	8g\	in	(8cc#\L	vir-
8G\	vir-	8B\	vir-	8g\	vir-	8dd\J)	.
!	!	!LO:LB:g=original	!	!	!	!	!
=10	=10	=10	=10	=10	=10	=10	=10
4C/	-tu-	(8.d\L	-tu-	4g\	-tu-	(8.ff#\L	-tu-
.	.	16c\Jk)	.	.	.	16ee\Jk)	.
8G\	-te	8B\	-te	8g\	-te	8dd\	-te
8r	.	8r	.	8r	.	8r	.
!LO:LB:g=original	!	!	!	!	!	!	!
8GG/	vir-	8B\	vir-	8g\	vir-	(16dd\LL	vir-
.	.	.	.	.	.	16gg\JJ)	.
16G\	-tu-	16B\	-tu-	16g\	-tu-	16b\	-tu-
16G\	-te	16B\	-te	16g\	-te	16ee\	-te
!	!	!	!	!	!	!LO:LB:g=original	!
=11	=11	=11	=11	=11	=11	=11	=11
4D\	tu-	4An\	tu-	4f#\	tu-	(8.dd\L	tu-
.	.	.	.	.	.	16cc\Jk)	.
8G\	-a	8B\	-a	8g\	-a	8b\	-a
8r	.	8r	.	8r	.	8r	.
8E\	et	8B\	et	(16b\LL	et	(16b\LL	et
.	.	.	.	16g\JJ)	.	16ee\JJ)	.
16E\	a-	16B\	a-	16g\	ab-	16ee\	a-
!	!	!	!	!LO:TX:b:t=V&colon; S&colon;	!	!	!
16E\	-bun-	16B\	-bun-	16e\	-un-	16gg\	-bun-
!	!	!	!	!LO:PB:g=original	!	!	!
=12	=12	=12	=12	=12	=12	=12	=12
8BB/	-dan-	8d#X\	-dan-	8a\	-dan-	8.gg\	-dan-
8BB/	-ti-	8d#\	-ti-	8a\	-ti-	.	.
.	.	.	.	.	.	16ff#\	-ti-
8E\	-a	8e\	-a	8g\	-a	8ee\	-a
8r	.	8r	.	8r	.	8r	.
4E\	in	(8e\L	in	(8cc#X\L	in	4gg\	in
!	!	!LO:TX:b:t=V&colon; S&colon;	!	!	!	!	!
.	.	8d#\J)	.	8b\J)	.	.	.
!	!	!LO:PB:g=original	!	!	!	!	!
=13	=13	=13	=13	=13	=13	=13	=13
2F#\	tu[r]-	2c#X\	tur-	2a\	tur-	(4.ff#\	tu[r]-
.	.	.	.	.	.	8ee\)	.
8G\	-ri-	8c#\	-ri-	8b\	-ri-	8dd\	-ri-
!	!	!	!	!	!	!LO:TX:b:t=V&colon; S&colon;	!
8G#X\	-bus	8dn\	-bus	8b\	-bus	8ee\	-bus
!	!	!	!	!	!	!LO:PB:g=original	!
=14	=14	=14	=14	=14	=14	=14	=14
(4A\	tu-	(2d\	tu-	(2a\	tu-	[2ff#\	tu-
8F#\L	.	.	.	.	.	.	.
8D\J)	.	.	.	.	.	.	.
4AA/	is	4c#X\)	.	4g\)	.	8.ff#\L]	.
.	.	.	.	.	.	16ee\Jk	.
!LO:LB:g=original	!	!	!	!	!	!	!
=15	=15	=15	=15	=15	=15	=15	=15
8D\	fi-	4A\	-is	4f#\	-is	4dd\	-is
(16D\LL	-at	.	.	.	.	.	.
16E\JJ)	.	.	.	.	.	.	.
(8F#\L	fi-	4r	.	4r	.	4r	.
8G\J)	.	.	.	.	.	.	.
(8A\L	-at	4r	.	4r	.	4r	.
8B\J)	.	.	.	.	.	.	.
=16	=16	=16	=16	=16	=16	=16	=16
2c\	pax	8A\	fi-	8f#\	fi-	8dd\	fi-
.	.	8A\	-at	8f#\	-at	(16dd\LL	-at
.	.	.	.	.	.	32ee\L	.
.	.	.	.	.	.	32dd\JJJ)	.
.	.	4A\	pax	4f#\	pax	(8cc#X\L	pax
.	.	.	.	.	.	8dd\J)	.
4C/	in	8A\	in	8g\	in	8ee\	in
.	.	8d\	vir-	8a\	vir-	8ff#\	vir-
!	!	!	!	!LO:LB:g=original	!	!	!
=17	=17	=17	=17	=17	=17	=17	=17
2BB/	vir-	4d\	-tu-	4g\	-tu-	2gg\	-tu-
.	.	4d\	-te	4g\	-te	.	.
8BB/	-tu-	4G/	vir-	8fn\	in	8dd\	-te
8BB/	-te	.	.	8f\	vir-	8dd\	vir-
!	!	!LO:LB:g=original	!	!	!	!	!
=18	=18	=18	=18	=18	=18	=18	=18
(4C/	tu-	8G\	-tu-	8e\	-tu-	(16dd\LL	-tu-
.	.	.	.	.	.	16cc\JJ)	.
.	.	(16B\LL	-te	8e\	-te	(16dd\LL	-te
.	.	16c\JJ)	.	.	.	16ee\JJ)	.
!	!	!	!	!	!	!LO:LB:g=original	!
8D/L	.	(4G/	tu-	2d\	tu-	(4b\	tu-
16D/L	.	.	.	.	.	.	.
16C#X/JJ)	.	.	.	.	.	.	.
4D/	-a	4F#/)	.	.	.	4a\)	.
=19	=19	=19	=19	=19	=19	=19	=19
8BBL 8GG/	et	4G/	-a	4d\	-a	4b\	-a
16BBL 16GG/	.	.	.	.	.	.	.
16AA/JJ	.	.	.	.	.	.	.
(8BB/L	a-	4r	.	4r	.	4r	.
8C/J)	.	.	.	.	.	.	.
(8D\L	-bun-	4r	.	4r	.	4r	.
8E\J)	.	.	.	.	.	.	.
!LO:LB:g=original	!	!	!	!	!	!	!
=20	=20	=20	=20	=20	=20	=20	=20
4.Fn\	-dan-	4B\	et	4g\	et	4dd\	et
.	.	8B\	a-	8g\	a-	8dd\	a-
8GG/	-ti-	8B\	-bun-	8g\	-bun-	8dd\	-bun-
4GG/	-a	8B\	-dan-	8fn\	-dan-	8dd#X\	-dan-
.	.	8B\	-ti-	8f\	-ti-	8dd#\	-ti-
=21	=21	=21	=21	=21	=21	=21	=21
2.C/	in	2c\	-a	4e\	-a	2ee\	-a
.	.	.	.	2g\	in	.	.
.	.	4c\	in	.	.	4ee\	in
!	!	!	!	!LO:LB:g=original	!	!	!
=22	=22	=22	=22	=22	=22	=22	=22
2C/	tu[r]-	2e-X\	tur-	2a\	tur-	4ff#\	tu[r]-
.	.	.	.	.	.	4ff#\	-ri-
8C#X/	-ri-	8en\	-ri-	8b-X\	-ri-	4gg\	-bus
8C#/	-bus	8e\	-bus	8b-\	-bus	.	.
!	!	!LO:LB:g=original	!	!	!	!LO:LB:g=original	!
=23	=23	=23	=23	=23	=23	=23	=23
2.D\	tu-	(4.d\	tu-	(4.bn\	tu-	2gg\	tu-
.	.	8c#X\	.	8b-X\	.	.	.
.	.	4cn\)	.	4an\)	.	(16gg\LL	.
.	.	.	.	.	.	16ff#\	.
.	.	.	.	.	.	16ee\	.
.	.	.	.	.	.	16ff#\JJ)	.
=24	=24	=24	=24	=24	=24	=24	=24
4GG/	-is	4B\	-is	4g\	-is	4gg\	-is
4GG/	et	8r	.	8r	.	8r	.
.	.	8Fn/	et	8d\	et	8b\	et
8GG/	a-	8E/	a-	8c\	a-	8cc\	a-
8GG/	-bun-	8E-X/	-bun-	8c\	-bun-	8f#/	-bun-
=25	=25	=25	=25	=25	=25	=25	=25
4GG/	-dan-	4D/	-dan-	4B/	-dan-	4g\	-dan-
4GG/	-ti-	8D/	-ti-	8B/	-ti-	8g\	-ti-
.	.	8D/	-a	8B/	-a	8g\	-a
4GG/	-a	(8En/L	in	(8c\L	in	(8a\L	in
.	.	8F#X/J)	.	8d\J)	.	8b\J)	.
!LO:LB:g=original	!	!	!	!LO:LB:g=original	!	!	!
=26	=26	=26	=26	=26	=26	=26	=26
4GG/	in	4E/	tu[r]-	2c\	tur-	(8.cc\L	tu[r]-
.	.	.	.	.	.	16dd\Jk	.
8GG/	tu[r]-	4e\	-ri-	.	.	16ff#\LL	.
.	.	.	.	.	.	16ee\	.
8GG/	-ri-	.	.	.	.	16dd\	.
.	.	.	.	.	.	16cc\JJ)	.
4GG/	-bus	4e-X\	-bus	8c\	-ri-	(16b\LL	-ri-
.	.	.	.	.	.	16a\JJ)	.
.	.	.	.	8c\	-bus	(16cc\LL	-bus
.	.	.	.	.	.	16f#\JJ)	.
!	!	!	!	!	!	!LO:LB:g=original	!
=27	=27	=27	=27	=27	=27	=27	=27
2.GG/	tu-	2.d\	tu-	2.B/	tu-	2.g\	tu-
=28	=28	=28	=28	=28	=28	=28	=28
2.GG/	-is.	2.d\	-is.	2.B/	-is.	2.g\	-is.
==	==	==	==	==	==	==	==
*-	*-	*-	*-	*-	*-	*-	*-
!!!system-decoration: [(s1,s2,s3,s4)]
!!!ENC: Katarzyna Serwa
!!!END: 2021-02-01
!!!ENC: Marta Lawrence
!!!END: 2021-02-13
